X: 3
T: da Slockit Light
C: Tom Anderson
O: Shetland slow air
Z: arr. by Tom Morley
R: air
S: Fiddle Hell Online 2021-11-04
Z: 2022 John Chambers <jc:trillian.mit.edu>
M: 4/4
L: 1/8
K: D
(uFE) | "D"vD3F A2d2 | "D"(fe) (d<c) d2A2 |\
[1,3 "G"B2d2 "D/F#"A2d2 | "Em"BAGF "A"EG :|\
[2,4 "G"B2G2 "A"AGFE | "G"D2 "A"(D>E) "D"D2  :|
|: ug2 |: "D"vf2a2 "A"e2c2 | "D(Bm)"d3e dcBA |\
[1,3 "D"f2a2 "E"e2^g2 | "A"a3b agfe :|\
[2,4 "G"B2G2 "A"AGFE | "G"D2 "A"(D>E) "D"D2  :|


